img/footer-logo.svg

<svg width="176" height="52" viewBox="0 0 176 52" fill="none" xmlns="http://www.w3.org/2000/svg">
<path fill-rule="evenodd" clip-rule="evenodd" d="M0 16.3716V16.4999L29.754 30.2639L59.6129 16.4531V16.4184L29.754 2.60815L0 16.3716ZM10.7268 16.4361L29.7546 7.6343L48.7843 16.4361L29.754 25.2371L10.7268 16.4361ZM29.754 35.6098L0 22.0519V27.0665L29.754 40.6555L59.6129 27.0203V22.0051L29.754 35.6098ZM29.754 45.7801L0 32.221V37.2356L29.754 50.8263L59.6129 37.1894V32.1748L29.754 45.7801Z" fill="white"/>
<path fill-rule="evenodd" clip-rule="evenodd" d="M169.216 26.2207C169.216 25.0579 169.012 23.9736 168.604 22.9679C168.195 21.9623 167.638 21.0823 166.931 20.328C166.225 19.5737 165.4 18.9845 164.458 18.5602C163.516 18.1359 162.511 17.9238 161.443 17.9238C160.375 17.9238 159.37 18.1359 158.428 18.5602C157.486 18.9845 156.661 19.5737 155.955 20.328C155.248 21.0823 154.691 21.9623 154.282 22.9679C153.874 23.9736 153.67 25.0579 153.67 26.2207C153.67 27.3836 153.874 28.4678 154.282 29.4735C154.691 30.4792 155.248 31.3592 155.955 32.1135C156.661 32.8677 157.486 33.457 158.428 33.8813C159.37 34.3056 160.375 34.5177 161.443 34.5177C162.511 34.5177 163.516 34.3056 164.458 33.8813C165.4 33.457 166.225 32.8677 166.931 32.1135C167.638 31.3592 168.195 30.4792 168.604 29.4735C169.012 28.4678 169.216 27.3836 169.216 26.2207ZM176 26.2207C176 28.2636 175.623 30.1571 174.869 31.9013C174.116 33.6455 173.079 35.1541 171.76 36.4269C170.441 37.6997 168.894 38.7054 167.12 39.444C165.345 40.1826 163.453 40.5518 161.443 40.5518C159.433 40.5518 157.549 40.1826 155.79 39.444C154.031 38.7054 152.492 37.692 151.173 36.4034C149.854 35.1148 148.818 33.5985 148.064 31.8542C147.31 30.11 146.933 28.2321 146.933 26.2207C146.933 24.2408 147.318 22.3787 148.087 20.6344C148.857 18.8902 149.901 17.3659 151.22 16.0617C152.539 14.7574 154.078 13.736 155.837 12.9975C157.596 12.2589 159.464 11.8896 161.443 11.8896C163.453 11.8896 165.345 12.2589 167.12 12.9975C168.894 13.736 170.441 14.7417 171.76 16.0145C173.079 17.2874 174.116 18.8038 174.869 20.5637C175.623 22.3237 176 24.2094 176 26.2207ZM144.578 39.7033C144.044 39.9547 143.439 40.159 142.764 40.3161C142.089 40.4733 141.39 40.5518 140.668 40.5518C139.663 40.5518 138.697 40.4183 137.77 40.1512C136.844 39.884 136.035 39.4519 135.344 38.8548C134.653 38.2577 134.104 37.4797 133.695 36.5212C133.287 35.5627 133.083 34.4077 133.083 33.0563V0.717041H140.008V31.8778C140.008 33.0091 140.236 33.787 140.691 34.2113C141.147 34.6356 141.688 34.8477 142.316 34.8477C143.102 34.8477 143.855 34.612 144.578 34.1406V39.7033V39.7033ZM130.021 12.5496L117.772 44.9361C116.861 47.356 115.668 49.1002 114.192 50.1688C112.716 51.2373 110.957 51.7716 108.915 51.7716C108.601 51.7716 108.256 51.7481 107.879 51.7009C107.502 51.6537 107.141 51.5831 106.795 51.4888L104.534 45.1718C105.068 45.4232 105.618 45.6196 106.183 45.761C106.748 45.9024 107.282 45.9732 107.785 45.9732C108.853 45.9732 109.826 45.7296 110.706 45.2425C111.585 44.7554 112.26 43.8518 112.731 42.5318L113.674 39.7976L103.168 12.5496H110.564L116.83 30.0863L122.719 12.5496H130.021ZM101.519 8.44829H83.8058V17.2167H101.284V23.1565H83.8058V39.8447H76.6451V2.1784H101.519V8.44829Z" fill="white"/>
</svg>

<svg width="176" height="52" fill="none" xmlns="http://www.w3.org/2000/svg"><path fill-rule="evenodd" clip-rule="evenodd" d="M0 16.372v.128l29.754 13.764 29.859-13.81v-.036L29.754 2.608 0 16.372zm10.727.064l19.028-8.802 19.03 8.802-19.031 8.801-19.027-8.8zM29.754 35.61L0 22.052v5.015l29.754 13.589L59.613 27.02v-5.015L29.754 35.61zm0 10.17L0 32.221v5.015l29.754 13.59L59.613 37.19v-5.014L29.754 45.78zM169.216 26.22a8.57 8.57 0 00-.612-3.252 8.501 8.501 0 00-1.673-2.64 7.669 7.669 0 00-2.473-1.768 7.256 7.256 0 00-3.015-.636 7.256 7.256 0 00-3.015.636 7.669 7.669 0 00-2.473 1.768 8.501 8.501 0 00-1.673 2.64 8.57 8.57 0 00-.612 3.253 8.57 8.57 0 00.612 3.253 8.5 8.5 0 001.673 2.64 7.67 7.67 0 002.473 1.767 7.256 7.256 0 003.015.637 7.256 7.256 0 003.015-.637 7.67 7.67 0 002.473-1.767 8.5 8.5 0 001.673-2.64 8.57 8.57 0 00.612-3.253zm6.784 0c0 2.044-.377 3.937-1.131 5.681a13.837 13.837 0 01-3.109 4.526c-1.319 1.273-2.866 2.278-4.64 3.017-1.775.739-3.667 1.108-5.677 1.108s-3.894-.37-5.653-1.108a14.656 14.656 0 01-4.617-3.04 14.121 14.121 0 01-3.109-4.55c-.754-1.744-1.131-3.622-1.131-5.633 0-1.98.385-3.842 1.154-5.587a14.729 14.729 0 013.133-4.572 14.454 14.454 0 014.617-3.065c1.759-.738 3.627-1.107 5.606-1.107 2.01 0 3.902.369 5.677 1.107 1.774.739 3.321 1.745 4.64 3.018 1.319 1.272 2.356 2.789 3.109 4.549.754 1.76 1.131 3.645 1.131 5.657zm-31.422 13.483a9.098 9.098 0 01-1.814.613 9.213 9.213 0 01-2.096.236c-1.005 0-1.971-.134-2.898-.4a6.352 6.352 0 01-2.426-1.297c-.691-.597-1.24-1.375-1.649-2.334-.408-.958-.612-2.113-.612-3.465V.717h6.925v31.16c0 1.132.228 1.91.683 2.334.456.425.997.637 1.625.637.786 0 1.539-.236 2.262-.707v5.562zM130.021 12.55l-12.249 32.386c-.911 2.42-2.104 4.164-3.58 5.233-1.476 1.068-3.235 1.603-5.277 1.603-.314 0-.659-.024-1.036-.071a7.803 7.803 0 01-1.084-.212l-2.261-6.317a8.986 8.986 0 001.649.589 6.609 6.609 0 001.602.212c1.068 0 2.041-.243 2.921-.73.879-.488 1.554-1.391 2.025-2.711l.943-2.734-10.506-27.248h7.396l6.266 17.536 5.889-17.536h7.302zm-28.502-4.102H83.806v8.769h17.478v5.94H83.806v16.688h-7.16V2.178h24.873v6.27z" fill="#fff"/></svg>
